dist/img/coop/like.svg

<svg width="80" height="80" viewBox="0 0 80 80" fill="none" xmlns="http://www.w3.org/2000/svg">
<rect width="80" height="80" rx="5" fill="#D1327F"/>
<g clip-path="url(#clip0_110_5)">
<path fill-rule="evenodd" clip-rule="evenodd" d="M63.8597 29.9805C61.5941 29.386 56.2672 29.3933 48.4753 29.1866C48.8432 27.4865 48.9284 25.9531 48.9284 23.2308C48.9284 16.7275 44.1905 11 40 11C37.0402 11 34.6006 13.4197 34.5625 16.3958C34.5226 20.0462 33.3934 26.3501 27.3125 29.5473C26.8666 29.7829 25.5906 30.4119 25.4039 30.4934L25.5 30.575C24.5484 29.7539 23.2289 29.125 21.875 29.125H16.4375C13.4396 29.125 11 31.5646 11 34.5625V63.5625C11 66.5604 13.4396 69 16.4375 69H21.875C24.0319 69 25.8371 67.6968 26.7108 65.8698C26.7325 65.8771 26.7706 65.8879 26.7959 65.8916C26.9156 65.9242 27.0569 65.9586 27.2291 66.0039C27.2618 66.013 27.2781 66.0166 27.3125 66.0257C28.3565 66.2849 30.3666 66.7652 34.6622 67.753C35.5829 67.9633 40.4477 69 45.4864 69H55.3954C58.415 69 60.5918 67.8382 61.8878 65.5055C61.9059 65.4693 62.3227 64.6554 62.6635 63.5553C62.9191 62.7269 63.0133 61.5543 62.7052 60.3653C64.6518 59.0276 65.2789 57.0049 65.6868 55.689C66.3701 53.5303 66.1652 51.9081 65.6904 50.7463C66.7851 49.7132 67.7186 48.1381 68.1119 45.7329C68.3566 44.2431 68.0938 42.7097 67.4068 41.4337C68.4327 40.2809 68.9003 38.8309 68.9547 37.4897L68.9764 37.1109C68.9891 36.8734 69 36.7266 69 36.2046C69 33.9154 67.4141 30.9955 63.8597 29.9805ZM23.6875 63.5625C23.6875 64.5648 22.8773 65.375 21.875 65.375H16.4375C15.4352 65.375 14.625 64.5648 14.625 63.5625V34.5625C14.625 33.5602 15.4352 32.75 16.4375 32.75H21.875C22.8773 32.75 23.6875 33.5602 23.6875 34.5625V63.5625ZM65.3333 37.3447C65.2971 38.2401 64.9219 40 61.75 40C59.0312 40 58.125 40 58.125 40C57.6229 40 57.2188 40.406 57.2188 40.9062C57.2188 41.4065 57.6229 41.8125 58.125 41.8125C58.125 41.8125 58.9189 41.8125 61.6376 41.8125C64.3564 41.8125 64.7134 44.0672 64.5376 45.1547C64.3129 46.5069 63.6785 49.0625 60.6172 49.0625C57.5595 49.0625 56.3125 49.0625 56.3125 49.0625C55.8104 49.0625 55.4062 49.4667 55.4062 49.9688C55.4062 50.4672 55.8104 50.875 56.3125 50.875C56.3125 50.875 58.4657 50.875 59.8813 50.875C62.9408 50.875 62.6708 53.2077 62.2321 54.5997C61.6539 56.4285 61.3005 58.125 57.4453 58.125C56.1421 58.125 54.4891 58.125 54.4891 58.125C53.9871 58.125 53.5829 58.5292 53.5829 59.0312C53.5829 59.5297 53.9871 59.9375 54.4891 59.9375C54.4891 59.9375 55.7452 59.9375 57.3311 59.9375C59.314 59.9375 59.4064 61.8134 59.1998 62.4859C58.9733 63.2218 58.705 63.7673 58.6941 63.7927C58.1467 64.7805 57.2641 65.375 55.3954 65.375H45.4864C40.5093 65.375 35.5721 64.2458 35.4452 64.2168C27.9161 62.4823 27.5191 62.3481 27.0461 62.214C27.0461 62.214 25.5127 61.9548 25.5127 60.6172L25.5 35.5829C25.5 34.7329 26.0419 33.9644 26.9391 33.6943C27.0515 33.6508 27.2038 33.6037 27.3125 33.5584C35.592 30.1291 38.1132 22.6109 38.1875 16.4375C38.1984 15.5693 38.8672 14.625 40 14.625C41.9158 14.625 45.3034 18.4711 45.3034 23.2308C45.3034 27.5282 45.1294 28.2713 43.625 32.75C61.75 32.75 61.6231 33.011 63.2218 33.4297C65.2046 33.997 65.375 35.6391 65.375 36.2046C65.375 36.8263 65.3569 36.7357 65.3333 37.3447Z" fill="#F1EDF3" stroke="#F1EDF3"/>
</g>
<defs>
<clipPath id="clip0_110_5">
<rect width="60" height="60" fill="white" transform="translate(10 10)"/>
</clipPath>
</defs>
</svg>

<svg width="80" height="80" fill="none" xmlns="http://www.w3.org/2000/svg"><rect width="80" height="80" rx="5" fill="#D1327F"/><g clip-path="url(#a)"><path fill-rule="evenodd" clip-rule="evenodd" d="M63.86 29.98c-2.266-.594-7.593-.587-15.385-.793.368-1.7.453-3.234.453-5.956C48.928 16.727 44.191 11 40 11c-2.96 0-5.4 2.42-5.438 5.396-.04 3.65-1.169 9.954-7.25 13.151-.445.236-1.721.865-1.908.946l.096.082c-.952-.821-2.271-1.45-3.625-1.45h-5.438A5.444 5.444 0 0 0 11 34.563v29A5.444 5.444 0 0 0 16.438 69h5.437c2.157 0 3.962-1.303 4.836-3.13.022.007.06.018.085.022l.433.112.084.022c1.044.259 3.054.74 7.35 1.727.92.21 5.785 1.247 10.823 1.247h9.91c3.019 0 5.196-1.162 6.492-3.495.018-.036.435-.85.776-1.95.255-.828.35-2 .041-3.19 1.947-1.337 2.574-3.36 2.982-4.676.683-2.159.478-3.78.003-4.943 1.095-1.033 2.029-2.608 2.422-5.013a6.81 6.81 0 0 0-.705-4.3c1.026-1.152 1.493-2.602 1.548-3.943l.021-.38c.013-.237.024-.383.024-.905 0-2.29-1.586-5.21-5.14-6.224ZM23.688 63.563a1.81 1.81 0 0 1-1.813 1.813h-5.438a1.81 1.81 0 0 1-1.812-1.813v-29a1.81 1.81 0 0 1 1.813-1.812h5.437a1.81 1.81 0 0 1 1.813 1.813v29Zm41.645-26.217C65.297 38.24 64.922 40 61.75 40h-3.625a.905.905 0 1 0 0 1.813h3.513c2.718 0 3.075 2.254 2.9 3.342-.225 1.352-.86 3.907-3.92 3.907h-4.306a.907.907 0 0 0 0 1.813h3.57c3.059 0 2.789 2.333 2.35 3.725-.578 1.828-.931 3.525-4.787 3.525H54.49a.907.907 0 0 0 0 1.813h2.842c1.983 0 2.075 1.875 1.869 2.548-.227.736-.495 1.281-.506 1.307-.547.988-1.43 1.582-3.299 1.582h-9.909c-4.977 0-9.914-1.13-10.04-1.158-7.53-1.735-7.927-1.869-8.4-2.003 0 0-1.533-.26-1.533-1.597L25.5 35.583c0-.85.542-1.619 1.44-1.889.111-.043.264-.09.372-.136 8.28-3.429 10.801-10.947 10.875-17.12.011-.869.68-1.813 1.813-1.813 1.916 0 5.303 3.846 5.303 8.606 0 4.297-.174 5.04-1.678 9.519 18.125 0 17.998.261 19.597.68 1.983.567 2.153 2.21 2.153 2.775 0 .621-.018.53-.042 1.14Z" fill="#F1EDF3" stroke="#F1EDF3"/></g><defs><clipPath id="a"><path fill="#fff" transform="translate(10 10)" d="M0 0h60v60H0z"/></clipPath></defs></svg>
